X:79
T:I Made It to Winona
C:Terence "Cuz" Teahan
B:Terry "Cuz" Teahan "Sliabh Luachra on Parade" 1980
Z:Patrick Cavanagh
M:2/4
L:1/8
R:Polka
K:D
E | FA B/A/G | FD F2 | EF GE | DE FD | 
FA B/A/G | FD F2 | E>F GC | ED D :| 
D | A>G FA | Bc d2 | AG FD | BA FE | 
A/B/A/G/ FA | Bc dB | AF EF | D2 D :| 

